icons/hand-waving.svg

<svg width="24" height="24" viewBox="0 0 24 24" fill="none" xmlns="http://www.w3.org/2000/svg">
<path d="M14.806 7.96642C14.6813 7.74874 14.6004 7.50839 14.5677 7.2591C14.535 7.0098 14.5514 6.75645 14.6157 6.51353C14.68 6.2706 14.7912 6.04287 14.9427 5.84333C15.0942 5.6438 15.2832 5.47638 15.4989 5.35065C15.7145 5.22491 15.9526 5.14333 16.1995 5.11056C16.4464 5.07779 16.6972 5.09447 16.9377 5.15966C17.1782 5.22484 17.4036 5.33725 17.6011 5.49046C17.7985 5.64367 17.9641 5.83467 18.0885 6.05255L19.9836 9.36746C20.4816 10.2381 20.8049 11.1993 20.935 12.1962C21.0651 13.193 20.9995 14.206 20.7419 15.1772C20.4843 16.1484 20.0398 17.0589 19.4338 17.8567C18.8277 18.6544 18.072 19.3237 17.2098 19.8265C16.3475 20.3292 15.3957 20.6555 14.4086 20.7867C13.4215 20.9178 12.4184 20.8514 11.4568 20.591C10.4951 20.3307 9.59362 19.8816 8.80384 19.2693C8.01407 18.6571 7.35145 17.8938 6.85383 17.0229L3.25311 10.7246C3.0023 10.285 2.93457 9.76289 3.06478 9.27292C3.195 8.78295 3.51252 8.36524 3.94756 8.11159C4.3826 7.85793 4.89957 7.78909 5.38484 7.92018C5.87012 8.05128 6.28401 8.37159 6.53554 8.81072L8.24121 11.7942" stroke="#1E293B" stroke-width="2" stroke-linecap="round" stroke-linejoin="round"/>
<path d="M8.68097 4.90798C8.43016 4.46843 8.36242 3.94629 8.49264 3.45632C8.62286 2.96635 8.94038 2.54864 9.37542 2.29499C9.81046 2.04133 10.3274 1.97249 10.8127 2.10359C11.298 2.23468 11.7119 2.55499 11.9634 2.99412L15.7536 9.62393L14.806 7.96645" stroke="#1E293B" stroke-width="2" stroke-linecap="round" stroke-linejoin="round"/>
<path d="M8.68096 4.90782L11.1446 9.2172L7.92293 3.58185C7.79861 3.36397 7.63299 3.17297 7.43553 3.01976C7.23808 2.86655 7.01267 2.75414 6.77217 2.68896C6.53168 2.62377 6.28083 2.60709 6.03395 2.63986C5.78707 2.67263 5.549 2.75421 5.33336 2.87994C5.11772 3.00568 4.92872 3.1731 4.77718 3.37263C4.62564 3.57216 4.51452 3.7999 4.45017 4.04283C4.38583 4.28575 4.36952 4.5391 4.40217 4.7884C4.43483 5.03769 4.51581 5.27804 4.64049 5.49571L8.24121 11.794" stroke="#1E293B" stroke-width="2" stroke-linecap="round" stroke-linejoin="round"/>
<path d="M15.7536 9.62402C14.8831 10.1316 14.2478 10.9676 13.9876 11.9482C13.7274 12.9288 13.8636 13.9736 14.3663 14.8528" stroke="#1E293B" stroke-width="2" stroke-linecap="round" stroke-linejoin="round"/>
<path d="M16.4515 2C17.3164 1.99988 18.1661 2.22981 18.9151 2.66665C19.664 3.10348 20.2859 3.73182 20.718 4.48843" stroke="#1E293B" stroke-width="2" stroke-linecap="round" stroke-linejoin="round"/>
<path d="M7.45867 21.9998C6.17383 21.0995 5.1028 19.9225 4.32281 18.5537" stroke="#1E293B" stroke-width="2" stroke-linecap="round" stroke-linejoin="round"/>
</svg>

<svg
  width="24"
  height="24"
  viewBox="0 0 24 24"
  xmlns="http://www.w3.org/2000/svg"
  fill="none"
  stroke="currentColor"
  stroke-width="2"
  stroke-linecap="round"
  stroke-linejoin="round"
>
  <path d="M14.806 7.966a1.927 1.927 0 0 1 .693-2.615 1.882 1.882 0 0 1 2.59.702l1.895 3.314a7.706 7.706 0 0 1 .758 5.81 7.688 7.688 0 0 1-1.308 2.68 7.606 7.606 0 0 1-2.224 1.97 7.509 7.509 0 0 1-5.753.765 7.549 7.549 0 0 1-2.653-1.323 7.632 7.632 0 0 1-1.95-2.246l-3.6-6.298a1.93 1.93 0 0 1-.19-1.452c.131-.49.449-.908.884-1.161a1.879 1.879 0 0 1 1.437-.192c.485.131.899.452 1.15.89l1.706 2.984" />
  <path d="M8.681 4.908a1.93 1.93 0 0 1-.188-1.452c.13-.49.447-.907.882-1.161a1.879 1.879 0 0 1 1.438-.191c.485.13.899.451 1.15.89l3.79 6.63-.947-1.658" />
  <path d="M8.681 4.908l2.464 4.31-3.222-5.636a1.908 1.908 0 0 0-1.15-.893 1.877 1.877 0 0 0-1.44.19 1.901 1.901 0 0 0-.883 1.164 1.932 1.932 0 0 0 .19 1.453l3.601 6.298" />
  <path d="M15.754 9.624a3.823 3.823 0 0 0-1.766 2.324 3.86 3.86 0 0 0 .378 2.905" />
  <path d="M16.451 2c.865 0 1.715.23 2.464.667a4.95 4.95 0 0 1 1.803 1.821" />
  <path d="M7.459 22a10.636 10.636 0 0 1-3.136-3.446" />
</svg>
